X:1004
T:American patrol
R:March
C:F. W. Meacham 1885
N:Made popular by Glen Miller
O:USA
M:4/4
L:1/8
Q:1/4=160
K:G
(3DEF|"G"G2 G2 G3/2F/G3/2A/|B B2 (BB3/2)A/B3/2c/|d2 d3/2^c/ d3/2c/d3/2g/|d4 "D"z2 B2|
"C"c c2 B "Am"A2 c2|"G"B B2 A G2 B2|"Am"A2 E2 "Bm"F2 G2|"D"A3/2^G/A3/2B/ A2 (3DEF|
"G"G2 G2 G3/2F/G3/2A/|B B2 (BB3/2)A/B3/2c/|d2 d3/2^c/ d3/2c/d3/2g/|(d4 d3/2)B/c3/2d/|
"C"e2 d2 c2 B2|"D"A2 G2 "Bm"F2 G2|"Am"A2 B3/2c/ "G"B2 A2|G2 D3/2E/ "D"F3/2G/A3/2B/||
"C"c2 c2 c3 B|c3/2B/ c4 ^c2|"G"d2 d3/2e/ d3/2c/B3/2c/|d4 "C"e2 d2|
"C"c2 c3/2B/ c3/2B/c3/2B/|c3/2B/ c4 ^c2|"G"d2 d3/2e/ "G"d3/2c/B3/2c/|
"G"d2 G2 B2 d2|"C"e2 e2 g3 e|"G"d2 d3/2e/ d3/2c/ B2|"C"c2 c2 "Bm"F2 c2|"G"B B2 c B3/2A/ G2|
"C"e2 e2 g3 e|"G"d2 d3/2e/ d3/2c/ B2|"C"c2 c2 "D"F3/2D/F3/2A/|G3/2D/ F2 "G"G2|]

